2 Export/Branding/1 Project Logo.svg

<svg xmlns="http://www.w3.org/2000/svg" xmlns:xlink="http://www.w3.org/1999/xlink" width="100" height="100" viewBox="0 0 100 100">
  <defs>
    <path id="1-project-logo-a" d="M5.8984375,73 L5.8984375,25.7558594 L15.1796875,25.7558594 L34.515625,57.3056641 L34.515625,25.7558594 L43.3779297,25.7558594 L43.3779297,73 L33.8066406,73 L14.7607422,42.1914062 L14.7607422,73 L5.8984375,73 Z M51.53125,49.6679688 C51.53125,44.8554447 52.2509694,40.8164226 53.6904297,37.5507812 C54.7646538,35.1445192 56.2309477,32.9853611 58.0893555,31.0732422 C59.9477632,29.1611233 61.9833874,27.7431687 64.1962891,26.8193359 C67.1396632,25.573236 70.5341605,24.9501953 74.3798828,24.9501953 C81.3408551,24.9501953 86.9106236,27.1093534 91.0893555,31.4277344 C95.2680873,35.7461153 97.3574219,41.7509381 97.3574219,49.4423828 C97.3574219,57.0693741 95.2842004,63.0365996 91.1376953,67.3442383 C86.9911902,71.651877 81.4482769,73.8056641 74.5087891,73.8056641 C67.4833633,73.8056641 61.8974817,71.6626191 57.7509766,67.3764648 C53.6044715,63.0903106 51.53125,57.1875376 51.53125,49.6679688 Z M61.3603516,49.3457031 C61.3603516,54.6953392 62.5956908,58.7504745 65.0664062,61.5112305 C67.5371217,64.2719865 70.6738091,65.6523438 74.4765625,65.6523438 C78.2793159,65.6523438 81.3998902,64.2827285 83.8383789,61.543457 C86.2768677,58.8041855 87.4960938,54.6953399 87.4960938,49.2167969 C87.4960938,43.8027073 86.3090939,39.7636852 83.9350586,37.0996094 C81.5610233,34.4355336 78.4082228,33.1035156 74.4765625,33.1035156 C70.5449022,33.1035156 67.3759886,34.4516467 64.9697266,37.1479492 C62.5634645,39.8442518 61.3603516,43.9101291 61.3603516,49.3457031 Z"/>
  </defs>
  <g fill="none" fill-rule="evenodd">
    <rect width="100" height="100"/>
    <mask id="1-project-logo-b" fill="#fff">
      <use xlink:href="#1-project-logo-a"/>
    </mask>
    <use fill="#000" fill-rule="nonzero" xlink:href="#1-project-logo-a"/>
    <g fill="#000" mask="url(#1-project-logo-b)">
      <rect width="100" height="100"/>
    </g>
  </g>
</svg>

<svg xmlns="http://www.w3.org/2000/svg" xmlns:xlink="http://www.w3.org/1999/xlink" width="100" height="100" viewBox="0 0 100 100">
  <defs>
    <path id="1-project-logo-a" d="M5.898 73V25.756h9.282l19.336 31.55v-31.55h8.862V73h-9.571L14.76 42.191V73H5.898zm45.633-23.332c0-4.813.72-8.852 2.16-12.117a22.235 22.235 0 0 1 4.398-6.478c1.859-1.912 3.894-3.33 6.107-4.254 2.944-1.246 6.338-1.869 10.184-1.869 6.96 0 12.53 2.16 16.71 6.478 4.178 4.318 6.267 10.323 6.267 18.014 0 7.627-2.073 13.595-6.22 17.902-4.146 4.308-9.689 6.462-16.628 6.462-7.026 0-12.612-2.143-16.758-6.43-4.147-4.286-6.22-10.188-6.22-17.708zm9.83-.322c0 5.35 1.235 9.404 3.705 12.165 2.471 2.761 5.608 4.141 9.41 4.141 3.803 0 6.924-1.37 9.362-4.109 2.439-2.739 3.658-6.848 3.658-12.326 0-5.414-1.187-9.453-3.56-12.117-2.375-2.664-5.528-3.996-9.46-3.996-3.931 0-7.1 1.348-9.506 4.044-2.407 2.696-3.61 6.762-3.61 12.198z"/>
  </defs>
  <g fill="none" fill-rule="evenodd">
    <rect width="100" height="100"/>
    <mask id="1-project-logo-b" fill="#fff">
      <use xlink:href="#1-project-logo-a"/>
    </mask>
    <use fill="#000" fill-rule="nonzero" xlink:href="#1-project-logo-a"/>
    <g fill="#000" mask="url(#1-project-logo-b)">
      <rect width="100" height="100"/>
    </g>
  </g>
</svg>
